X:192
%%etbk:tnset id:59,pos:6,rep:3x,ant:
%%etbk:tnset id:257,pos:5,rep:3x,ant:
%%etbk:wsite http://www.thesession.org/tunes/display/1
%%etbk:pldat 2016-06-23T18:15,2016-06-21T15:57,2016-05-05T14:39,2016-05-04T15:45,2016-05-02T19:04,2016-03-10T18:11,2016-03-08T17:44,2016-02-29T19:36,2016-02-23T16:53,2015-10-27T16:28,2015-10-24T15:47,2015-10-20T16:12,2015-10-06T17:16,2015-09-30T16:32,2015-06-22T18:56,2015-06-16T16:45,2015-03-13T18:02,2015-03-10T16:08,2015-03-04T15:24,2015-02-16T19:52,2015-02-12T19:29,2015-02-04T16:35,2014-11-06T18:37,2014-11-04T15:29,2014-10-28T15:59,2014-10-25T15:02,2014-10-23T19:12,2014-08-21T18:27,2014-08-20T19:02,2014-06-22T16:07,2014-06-15T13:13,2014-06-02T19:19,2014-03-04T18:12,2014-02-25T18:08,2013-10-29T15:42,2013-10-27T14:34,2013-10-18T16:22,2013-10-15T18:05,2013-10-10T19:54
T: Cooley's
Z: Piano Box Version by Martin Fleischmann
H: Created 2013-02-19 /  Last Modified 2013-02-19
M: 4/4
L: 1/8
R: reel
K: Edor
|: "em"!1!E!3!BBA B2EB | !3!B2AB !5!d!3!BA!1!G | !3!"D"(3FE!1!D !5!AD !5!BD!5!AD | !3!F!1!D!5!AD !5!BAG!2!F |
"em"!1!E!3!BBA B2EB | !3!B z !1!AB !3!d!4!e!3!fg | "D"!5!a!3!f!1!e!3!c !4!d!2!B!1!A!3!F | !1!DEFD "em"!2!E4:|
|: "em"!3!e!1!B!2!B!1!B !3!eB!5!gB | !3!e!1!B!2!B!1!B !5!g!3!e!2!d!1!B | "D"!3!A2!2!FA !1!D!3!A!2!F!3!A | !1!A3A !2!def!5!g |
"em"!3!e!1!B!2!B!1!B !3!eB!5!gB | !3!e!2!d!1!B!2!c !1!defg | "D"!5!a!3!f!1!e!3!c !4!d!2!B!1!A!3!F | !1!DEFD "em"!2!E4:|


